public/cloud-icons/azure/application/static-web-folder.svg

<?xml version="1.0" encoding="UTF-8" standalone="no"?>
<!-- Generated by Microsoft Visio, SVG Export Static Web Folder.svg Page-1 -->

<svg
   xmlns:dc="http://purl.org/dc/elements/1.1/"
   xmlns:cc="http://creativecommons.org/ns#"
   xmlns:rdf="http://www.w3.org/1999/02/22-rdf-syntax-ns#"
   xmlns:svg="http://www.w3.org/2000/svg"
   xmlns="http://www.w3.org/2000/svg"
   xmlns:xlink="http://www.w3.org/1999/xlink"
   xmlns:sodipodi="http://sodipodi.sourceforge.net/DTD/sodipodi-0.dtd"
   xmlns:inkscape="http://www.inkscape.org/namespaces/inkscape"
   width="56.690014"
   height="45.360039"
   viewBox="0 0 56.690012 45.360038"
   xml:space="preserve"
   class="st11"
   version="1.1"
   id="svg156"
   sodipodi:docname="Static Web Folder.svg"
   style="font-size:12px;overflow:visible;color-interpolation-filters:sRGB;fill:none;fill-rule:evenodd;stroke-linecap:square;stroke-miterlimit:3"
   inkscape:version="0.92.5 (2060ec1f9f, 2020-04-08)"><metadata
   id="metadata160"><rdf:RDF><cc:Work
       rdf:about=""><dc:format>image/svg+xml</dc:format><dc:type
         rdf:resource="http://purl.org/dc/dcmitype/StillImage" /></cc:Work></rdf:RDF></metadata><sodipodi:namedview
   pagecolor="#ffffff"
   bordercolor="#666666"
   borderopacity="1"
   objecttolerance="10"
   gridtolerance="10"
   guidetolerance="10"
   inkscape:pageopacity="0"
   inkscape:pageshadow="2"
   inkscape:window-width="640"
   inkscape:window-height="480"
   id="namedview158"
   showgrid="false"
   inkscape:zoom="2.812688"
   inkscape:cx="28.346468"
   inkscape:cy="7.9415679"
   inkscape:window-x="0"
   inkscape:window-y="0"
   inkscape:window-maximized="0"
   inkscape:current-layer="svg156" />
	<style
   type="text/css"
   id="style2">
	<![CDATA[
		.st1 {fill:#dfa500;stroke:none;stroke-linecap:butt;stroke-width:0.75}
		.st2 {fill:#ffffff;stroke:none;stroke-linecap:butt;stroke-width:0.75}
		.st3 {fill:url(#grad0-11);stroke:none;stroke-linecap:butt;stroke-width:0.75}
		.st4 {fill:#f78d1e;stroke:none;stroke-linecap:butt;stroke-width:0.75}
		.st5 {fill:#ffb34d;stroke:none;stroke-linecap:butt;stroke-width:0.75}
		.st6 {fill:#faa21d;stroke:none;stroke-linecap:butt;stroke-width:0.75}
		.st7 {fill:url(#grad7-29);stroke:none;stroke-linecap:butt;stroke-width:0.75}
		.st8 {fill:url(#grad0-34);stroke:none;stroke-linecap:butt;stroke-width:0.75}
		.st9 {fill:url(#grad0-38);stroke:none;stroke-linecap:butt;stroke-width:0.75}
		.st10 {fill:#f2f2f2;fill-opacity:0.55;stroke:none;stroke-linecap:butt;stroke-width:0.75}
		.st11 {fill:none;fill-rule:evenodd;font-size:12px;overflow:visible;stroke-linecap:square;stroke-miterlimit:3}
	]]>
	</style>

	<defs
   id="Patterns_And_Gradients">
		<linearGradient
   id="grad0-11"
   x1="0"
   y1="0"
   x2="1"
   y2="0"
   gradientTransform="rotate(91.034537,0.5,0.5)">
			<stop
   offset="0"
   stop-color="#ffd400"
   stop-opacity="1"
   id="stop4" />
			<stop
   offset="1"
   stop-color="#ffbd02"
   stop-opacity="1"
   id="stop6" />
		</linearGradient>
		<radialGradient
   id="grad7-29"
   cx="-2.4181988"
   cy="62.826703"
   r="34.363662"
   gradientTransform="scale(1.0106525,0.98945976)"
   fx="-2.4181988"
   fy="62.826703"
   gradientUnits="userSpaceOnUse">
			<stop
   offset="0.185"
   stop-color="#5ea0ef"
   stop-opacity="1"
   id="stop9" />
			<stop
   offset="1"
   stop-color="#0078d4"
   stop-opacity="1"
   id="stop11" />
		</radialGradient>
		<linearGradient
   id="grad0-34"
   x1="0"
   y1="76.906949"
   x2="7.868062"
   y2="76.906949"
   gradientTransform="scale(1.0103632,0.98974311)"
   gradientUnits="userSpaceOnUse">
			<stop
   offset="0"
   stop-color="#cccccc"
   stop-opacity="1"
   id="stop14" />
			<stop
   offset="0.125"
   stop-color="#d7d7d7"
   stop-opacity="1"
   id="stop16" />
			<stop
   offset="1"
   stop-color="#fcfcfc"
   stop-opacity="1"
   id="stop18" />
		</linearGradient>
		<linearGradient
   id="grad0-38"
   x1="0"
   y1="79.662644"
   x2="5.1123782"
   y2="79.662644"
   gradientTransform="scale(1.0103634,0.98974287)"
   gradientUnits="userSpaceOnUse">
			<stop
   offset="0"
   stop-color="#cccccc"
   stop-opacity="1"
   id="stop21" />
			<stop
   offset="0.125"
   stop-color="#d7d7d7"
   stop-opacity="1"
   id="stop23" />
			<stop
   offset="1"
   stop-color="#fcfcfc"
   stop-opacity="1"
   id="stop25" />
		</linearGradient>
	<linearGradient
   inkscape:collect="always"
   xlink:href="#grad0-11"
   id="linearGradient4670"
   gradientTransform="scale(1.1857485,0.84334914)"
   x1="-5.8014886e-06"
   y1="51.686706"
   x2="47.809469"
   y2="51.686706"
   gradientUnits="userSpaceOnUse" /><linearGradient
   inkscape:collect="always"
   xlink:href="#grad0-11"
   id="linearGradient4672"
   gradientTransform="scale(1.1857485,0.84334914)"
   x1="-5.8014886e-06"
   y1="51.686706"
   x2="47.809469"
   y2="51.686706"
   gradientUnits="userSpaceOnUse" /></defs>
	<g
   id="g154"
   transform="translate(-5.6692831,-4.5342809)">
		<title
   id="title29">Page-1</title>
		<g
   id="group14785-1"
   transform="translate(5.66929,-34.0157)">
			<title
   id="title31">Static Web Folder.14785</title>
			<g
   id="group14786-2">
				<title
   id="title33">e40d5f91-938d-4a7c-b99f-1542f68</title>
				<g
   id="group14787-3">
					<title
   id="title35">Sheet.14787</title>
					<g
   id="shape14788-4">
						<title
   id="title37">Sheet.14788</title>
						<path
   d="M 55.37,43.59 H 30.64 A 1.31969,1.29275 0 0 1 29.9,43.37 l -7.06,-4.6 A 1.32283,1.29584 -180 0 0 22.1,38.55 H 1.33 A 1.32283,1.29584 -180 0 0 0,39.85 v 42.76 a 1.32283,1.29584 -180 0 0 1.33,1.3 h 54.04 a 1.32283,1.29584 -180 0 0 1.32,-1.3 V 44.88 a 1.32283,1.29584 -180 0 0 -1.32,-1.29 z"
   class="st1"
   id="path39"
   inkscape:connector-curvature="0"
   style="fill:#dfa500;stroke:none;stroke-width:0.75;stroke-linecap:butt" />
					</g>
					<g
   id="shape14789-6"
   transform="translate(5.15276,-40.3468)">
						<title
   id="title42">Sheet.14789</title>
						<path
   d="m 0,83.37 a 0.541745,0.530689 -180 0 0 0.541732,0.530677 L 12.34,83.91 a 0.541745,0.530689 -180 0 0 0.541732,-0.530677 L 12.89,81.91 A 0.541745,0.530689 -180 0 0 12.348268,81.379323 L 0.54,81.38 a 0.541745,0.530689 -180 0 0 -0.541732,0.530677 z"
   class="st2"
   id="path44"
   inkscape:connector-curvature="0"
   style="fill:#ffffff;stroke:none;stroke-width:0.75;stroke-linecap:butt" />
					</g>
					<g
   id="shape14790-8"
   transform="translate(0,-0.0647919)">
						<title
   id="title47">Sheet.14790</title>
						<path
   d="M 55.37,43.59 H 28.21 a 1.32598,1.29892 -180 0 0 -0.95,0.38 l -4.36,4.28 a 1.32283,1.29584 0 0 1 -0.94,0.38 H 1.33 A 1.32283,1.29584 -180 0 0 0,49.93 v 32.68 a 1.32283,1.29584 -180 0 0 1.33,1.3 h 54.04 a 1.32283,1.29584 -180 0 0 1.32,-1.3 V 44.89 a 1.32283,1.29584 -180 0 0 -1.32,-1.3 z"
   class="st3"
   id="path49"
   inkscape:connector-curvature="0"
   style="fill:url(#linearGradient4670);stroke:none;stroke-width:0.75;stroke-linecap:butt" />
					</g>
					<g
   id="shape14791-12"
   transform="translate(28.2236,-7.13019)">
						<title
   id="title52">Sheet.14791</title>
						<path
   d="M 10.65,65.77 V 77.84 L 0,83.91 v -12.1 z"
   class="st4"
   id="path54"
   inkscape:connector-curvature="0"
   style="fill:#f78d1e;stroke:none;stroke-width:0.75;stroke-linecap:butt" />
					</g>
					<g
   id="shape14792-14"
   transform="translate(17.5748,-19.2031)">
						<title
   id="title57">Sheet.14792</title>
						<path
   d="M 21.3,77.84 10.65,83.91 0,77.84 10.65,71.77 Z"
   class="st5"
   id="path59"
   inkscape:connector-curvature="0"
   style="fill:#ffb34d;stroke:none;stroke-width:0.75;stroke-linecap:butt" />
					</g>
					<g
   id="shape14793-16"
   transform="translate(17.5748,-7.13019)">
						<title
   id="title62">Sheet.14793</title>
						<path
   d="M 10.65,71.83 V 83.91 L 0,77.84 V 65.77 Z"
   class="st6"
   id="path64"
   inkscape:connector-curvature="0"
   style="fill:#faa21d;stroke:none;stroke-width:0.75;stroke-linecap:butt" />
					</g>
				</g>
				<g
   id="group14794-18">
					<title
   id="title68">Sheet.14794</title>
					<g
   id="shape14795-19">
						<title
   id="title70">Sheet.14795</title>
						<path
   d="M 55.37,43.59 H 30.64 A 1.31969,1.29275 0 0 1 29.9,43.37 l -7.06,-4.6 A 1.32283,1.29584 -180 0 0 22.1,38.55 H 1.33 A 1.32283,1.29584 -180 0 0 0,39.85 v 42.76 a 1.32283,1.29584 -180 0 0 1.33,1.3 h 54.04 a 1.32283,1.29584 -180 0 0 1.32,-1.3 V 44.88 a 1.32283,1.29584 -180 0 0 -1.32,-1.29 z"
   class="st1"
   id="path72"
   inkscape:connector-curvature="0"
   style="fill:#dfa500;stroke:none;stroke-width:0.75;stroke-linecap:butt" />
					</g>
					<g
   id="shape14796-21"
   transform="translate(5.15276,-40.3468)">
						<title
   id="title75">Sheet.14796</title>
						<path
   d="m 0,83.37 a 0.541745,0.530689 -180 0 0 0.541732,0.530677 L 12.34,83.91 a 0.541745,0.530689 -180 0 0 0.541732,-0.530677 L 12.89,81.91 A 0.541745,0.530689 -180 0 0 12.348268,81.379323 L 0.54,81.38 a 0.541745,0.530689 -180 0 0 -0.541732,0.530677 z"
   class="st2"
   id="path77"
   inkscape:connector-curvature="0"
   style="fill:#ffffff;stroke:none;stroke-width:0.75;stroke-linecap:butt" />
					</g>
					<g
   id="shape14797-23"
   transform="translate(0,-0.0647919)">
						<title
   id="title80">Sheet.14797</title>
						<path
   d="M 55.37,43.59 H 28.21 a 1.32598,1.29892 -180 0 0 -0.95,0.38 l -4.36,4.28 a 1.32283,1.29584 0 0 1 -0.94,0.38 H 1.33 A 1.32283,1.29584 -180 0 0 0,49.93 v 32.68 a 1.32283,1.29584 -180 0 0 1.33,1.3 h 54.04 a 1.32283,1.29584 -180 0 0 1.32,-1.3 V 44.89 a 1.32283,1.29584 -180 0 0 -1.32,-1.3 z"
   class="st3"
   id="path82"
   inkscape:connector-curvature="0"
   style="fill:url(#linearGradient4672);stroke:none;stroke-width:0.75;stroke-linecap:butt" />
					</g>
					<g
   id="shape14798-26"
   transform="translate(18.4166,-9.66942)">
						<title
   id="title85">a1911e4e-9624-47fa-b357-e147189</title>
						<path
   d="M 17.51,83.91 A 12.373234,12.120702 0 1 1 2.35,64.75 l 0.12,-0.09 a 12.372986,12.120506 0 0 1 15.04,19.25 z"
   class="st7"
   id="path87"
   inkscape:connector-curvature="0"
   style="fill:url(#grad7-29);stroke:none;stroke-width:0.75;stroke-linecap:butt" />
					</g>
					<g
   id="group14799-30"
   transform="translate(17.6378,-10.0551)">
						<title
   id="title90">Sheet.14799</title>
						<g
   id="shape14800-31"
   transform="translate(0.00629921,-5.75105)">
							<title
   id="title92">Sheet.14800</title>
							<ellipse
   cx="3.9748001"
   cy="80.011803"
   rx="3.9748001"
   ry="3.8936801"
   class="st8"
   id="ellipse94"
   style="fill:url(#grad0-34);stroke:none;stroke-width:0.75;stroke-linecap:butt" />
						</g>
						<g
   id="shape14801-35"
   transform="translate(9.77638)">
							<title
   id="title97">Sheet.14801</title>
							<ellipse
   cx="2.58268"
   cy="81.375504"
   rx="2.58268"
   ry="2.5299699"
   class="st9"
   id="ellipse99"
   style="fill:url(#grad0-38);stroke:none;stroke-width:0.75;stroke-linecap:butt" />
						</g>
						<g
   id="shape14802-39"
   transform="translate(15.5055,-6.12129)">
							<title
   id="title102">Sheet.14802</title>
							<ellipse
   cx="2.74331"
   cy="81.218201"
   rx="2.74331"
   ry="2.68732"
   class="st2"
   id="ellipse104"
   style="fill:#ffffff;stroke:none;stroke-width:0.75;stroke-linecap:butt" />
						</g>
						<g
   id="group14803-41"
   transform="translate(0,-0.416519)">
							<title
   id="title107">Sheet.14803</title>
							<g
   id="shape14804-42"
   transform="translate(0,-0.447373)">
								<title
   id="title109">Sheet.14804</title>
								<path
   d="m 0,81.67 a 13.2504,12.98 -180 0 0 0.91,1.31 12.1008,11.8538 -180 0 0 0.8,0.93 A 25.8803,25.3521 0 0 1 3.29,78.97 3.94646,3.86592 0 0 1 1.22,77.94 27.6378,27.0738 -180 0 0 0,81.67 Z"
   class="st10"
   id="path111"
   inkscape:connector-curvature="0"
   style="fill:#f2f2f2;fill-opacity:0.55;stroke:none;stroke-width:0.75;stroke-linecap:butt" />
							</g>
							<g
   id="shape14805-44"
   transform="translate(0.0409449,-11.6471)">
								<title
   id="title114">Sheet.14805</title>
								<path
   d="M 2.6,82.66 A 17.3669,17.0125 0 0 1 1.6,78.46 12.3528,12.1007 -180 0 0 0,80.54 19.3008,18.9069 -180 0 0 0.83,83.91 3.97165,3.8906 0 0 1 2.6,82.66 Z"
   class="st10"
   id="path116"
   inkscape:connector-curvature="0"
   style="fill:#f2f2f2;fill-opacity:0.55;stroke:none;stroke-width:0.75;stroke-linecap:butt" />
							</g>
							<g
   id="shape14806-46"
   transform="translate(4.71181,-1.78949)">
								<title
   id="title119">Sheet.14806</title>
								<path
   d="M 2.17,79.12 A 3.94961,3.869 0 0 1 0,80.29 16.8409,16.4973 -180 0 0 2.11,82.13 17.9118,17.5463 -180 0 0 5.09,83.91 2.34646,2.29857 0 0 1 5.05,83.58 2.56693,2.51454 0 0 1 5.83,81.77 17.5307,17.1729 0 0 1 2.17,79.12 Z"
   class="st10"
   id="path121"
   inkscape:connector-curvature="0"
   style="fill:#f2f2f2;fill-opacity:0.55;stroke:none;stroke-width:0.75;stroke-linecap:butt" />
							</g>
							<g
   id="shape14807-48"
   transform="translate(14.1984)">
								<title
   id="title124">Sheet.14807</title>
								<path
   d="m 0.74,81.63 c 0,0.06 0,0.11 0,0.16 A 2.58268,2.52997 0 0 1 0,83.56 20.1953,19.7831 -180 0 0 4.96,83.91 12.2457,11.9958 -180 0 0 6.64,81.99 17.515,17.1575 0 0 1 4.75,82.09 17.1748,16.8243 0 0 1 0.74,81.63 Z"
   class="st10"
   id="path126"
   inkscape:connector-curvature="0"
   style="fill:#f2f2f2;fill-opacity:0.55;stroke:none;stroke-width:0.75;stroke-linecap:butt" />
							</g>
							<g
   id="shape14808-50"
   transform="translate(5.39528,-8.87341)">
								<title
   id="title129">Sheet.14808</title>
								<path
   d="M 11.03,82.49 A 38.7024,37.9125 0 0 1 6.29,78.45 19.7921,19.3882 0 0 1 14.92,76.38 12.2173,11.968 -180 0 0 12.76,74.32 21.0394,20.61 -180 0 0 5.92,75.9 C 5.45,76.1 5.03,76.39 4.58,76.62 L 4.54,76.58 A 24.8346,24.3278 0 0 1 1.65,72.41 12.3685,12.1161 -180 0 0 0.08,73.01 26.085,25.5527 -180 0 0 3.09,77.44 17.7669,17.4043 -180 0 0 0,79.9 a 3.9748,3.89368 0 0 1 1.96,1.57 17.0457,16.6978 0 0 1 2.83,-2.16 40.1291,39.3102 -180 0 0 5.36,4.6 2.69606,2.64104 0 0 1 0.88,-1.42 z"
   class="st10"
   id="path131"
   inkscape:connector-curvature="0"
   style="fill:#f2f2f2;fill-opacity:0.55;stroke:none;stroke-width:0.75;stroke-linecap:butt" />
							</g>
							<g
   id="shape14809-52"
   transform="translate(19.9654,-4.98898)">
								<title
   id="title134">Sheet.14809</title>
								<path
   d="M 2.43,82.08 2.38,82.05 1.95,81.82 1.87,81.78 1.48,81.57 1.39,81.52 0.93,81.26 A 2.57953,2.52688 0 0 1 0,82.58 l 0.54,0.31 0.13,0.07 0.5,0.27 0.05,0.03 c 0.41,0.21 0.83,0.43 1.26,0.65 a 12.315,12.0636 -180 0 0 0.41,-1.59 z"
   class="st10"
   id="path136"
   inkscape:connector-curvature="0"
   style="fill:#f2f2f2;fill-opacity:0.55;stroke:none;stroke-width:0.75;stroke-linecap:butt" />
							</g>
						</g>
						<g
   id="shape14810-54"
   transform="translate(0.00629921,-5.75105)">
							<title
   id="title140">Sheet.14810</title>
							<ellipse
   cx="3.9748001"
   cy="80.011803"
   rx="3.9748001"
   ry="3.8936801"
   class="st2"
   id="ellipse142"
   style="fill:#ffffff;stroke:none;stroke-width:0.75;stroke-linecap:butt" />
						</g>
						<g
   id="shape14811-56"
   transform="translate(9.77638)">
							<title
   id="title145">Sheet.14811</title>
							<ellipse
   cx="2.58268"
   cy="81.375504"
   rx="2.58268"
   ry="2.5299699"
   class="st2"
   id="ellipse147"
   style="fill:#ffffff;stroke:none;stroke-width:0.75;stroke-linecap:butt" />
						</g>
					</g>
				</g>
			</g>
		</g>
	</g>
</svg>

<svg xmlns="http://www.w3.org/2000/svg" xmlns:xlink="http://www.w3.org/1999/xlink" xml:space="preserve" width="56.69" height="45.36" style="font-size:12px;overflow:visible;color-interpolation-filters:sRGB;fill-rule:evenodd;stroke-linecap:square;stroke-miterlimit:3" viewBox="0 0 56.69 45.36"><defs><linearGradient id="a" x1="0" x2="1" y1="0" y2="0" gradientTransform="rotate(91.035 .5 .5)"><stop offset="0" stop-color="#ffd400"/><stop offset="1" stop-color="#ffbd02"/></linearGradient><linearGradient id="e" x1="0" x2="7.868" y1="76.907" y2="76.907" gradientTransform="scale(1.01036 .98974)" gradientUnits="userSpaceOnUse"><stop offset="0" stop-color="#ccc"/><stop offset=".125" stop-color="#d7d7d7"/><stop offset="1" stop-color="#fcfcfc"/></linearGradient><linearGradient id="f" x1="0" x2="5.112" y1="79.663" y2="79.663" gradientTransform="scale(1.01036 .98974)" gradientUnits="userSpaceOnUse"><stop offset="0" stop-color="#ccc"/><stop offset=".125" stop-color="#d7d7d7"/><stop offset="1" stop-color="#fcfcfc"/></linearGradient><linearGradient xlink:href="#a" id="b" x1="0" x2="47.809" y1="51.687" y2="51.687" gradientTransform="scale(1.18575 .84335)" gradientUnits="userSpaceOnUse"/><linearGradient xlink:href="#a" id="c" x1="0" x2="47.809" y1="51.687" y2="51.687" gradientTransform="scale(1.18575 .84335)" gradientUnits="userSpaceOnUse"/><radialGradient id="d" cx="-2.418" cy="62.827" r="34.364" fx="-2.418" fy="62.827" gradientTransform="scale(1.01065 .98946)" gradientUnits="userSpaceOnUse"><stop offset=".185" stop-color="#5ea0ef"/><stop offset="1" stop-color="#0078d4"/></radialGradient></defs><g transform="translate(-5.67 -4.534)"><title>Page-1</title><g transform="translate(5.67 -34.016)"><title>Static Web Folder.14785</title><title>e40d5f91-938d-4a7c-b99f-1542f68</title><title>Sheet.14787</title><title>Sheet.14788</title><path d="M55.37 43.59H30.64a1.32 1.293 0 0 1-.74-.22l-7.06-4.6a1.323 1.296-180 0 0-.74-.22H1.33A1.323 1.296-180 0 0 0 39.85v42.76a1.323 1.296-180 0 0 1.33 1.3h54.04a1.323 1.296-180 0 0 1.32-1.3V44.88a1.323 1.296-180 0 0-1.32-1.29" style="fill:#dfa500;stroke:none;stroke-width:.75;stroke-linecap:butt"/><g transform="translate(5.153 -40.347)"><title>Sheet.14789</title><path d="M0 83.37a.542.53-180 0 0 .542.53l11.798.01a.542.53-180 0 0 .542-.53l.008-1.47a.542.53-180 0 0-.542-.53H.54a.542.53-180 0 0-.542.53z" style="fill:#fff;stroke:none;stroke-width:.75;stroke-linecap:butt"/></g><g transform="translate(0 -.065)"><title>Sheet.14790</title><path d="M55.37 43.59H28.21a1.326 1.299-180 0 0-.95.38l-4.36 4.28a1.323 1.296 0 0 1-.94.38H1.33A1.323 1.296-180 0 0 0 49.93v32.68a1.323 1.296-180 0 0 1.33 1.3h54.04a1.323 1.296-180 0 0 1.32-1.3V44.89a1.323 1.296-180 0 0-1.32-1.3" style="fill:url(#b);stroke:none;stroke-width:.75;stroke-linecap:butt"/></g><g transform="translate(28.224 -7.13)"><title>Sheet.14791</title><path d="M10.65 65.77v12.07L0 83.91v-12.1z" style="fill:#f78d1e;stroke:none;stroke-width:.75;stroke-linecap:butt"/></g><g transform="translate(17.575 -19.203)"><title>Sheet.14792</title><path d="m21.3 77.84-10.65 6.07L0 77.84l10.65-6.07Z" style="fill:#ffb34d;stroke:none;stroke-width:.75;stroke-linecap:butt"/></g><g transform="translate(17.575 -7.13)"><title>Sheet.14793</title><path d="M10.65 71.83v12.08L0 77.84V65.77Z" style="fill:#faa21d;stroke:none;stroke-width:.75;stroke-linecap:butt"/></g><title>Sheet.14794</title><title>Sheet.14795</title><path d="M55.37 43.59H30.64a1.32 1.293 0 0 1-.74-.22l-7.06-4.6a1.323 1.296-180 0 0-.74-.22H1.33A1.323 1.296-180 0 0 0 39.85v42.76a1.323 1.296-180 0 0 1.33 1.3h54.04a1.323 1.296-180 0 0 1.32-1.3V44.88a1.323 1.296-180 0 0-1.32-1.29" style="fill:#dfa500;stroke:none;stroke-width:.75;stroke-linecap:butt"/><g transform="translate(5.153 -40.347)"><title>Sheet.14796</title><path d="M0 83.37a.542.53-180 0 0 .542.53l11.798.01a.542.53-180 0 0 .542-.53l.008-1.47a.542.53-180 0 0-.542-.53H.54a.542.53-180 0 0-.542.53z" style="fill:#fff;stroke:none;stroke-width:.75;stroke-linecap:butt"/></g><g transform="translate(0 -.065)"><title>Sheet.14797</title><path d="M55.37 43.59H28.21a1.326 1.299-180 0 0-.95.38l-4.36 4.28a1.323 1.296 0 0 1-.94.38H1.33A1.323 1.296-180 0 0 0 49.93v32.68a1.323 1.296-180 0 0 1.33 1.3h54.04a1.323 1.296-180 0 0 1.32-1.3V44.89a1.323 1.296-180 0 0-1.32-1.3" style="fill:url(#c);stroke:none;stroke-width:.75;stroke-linecap:butt"/></g><g transform="translate(18.417 -9.67)"><title>a1911e4e-9624-47fa-b357-e147189</title><path d="M17.51 83.91A12.373 12.12 0 1 1 2.35 64.75l.12-.09a12.373 12.12 0 0 1 15.04 19.25" style="fill:url(#d);stroke:none;stroke-width:.75;stroke-linecap:butt"/></g><g transform="translate(17.638 -10.055)"><title>Sheet.14799</title><g transform="translate(.006 -5.751)"><title>Sheet.14800</title><ellipse cx="3.975" cy="80.012" rx="3.975" ry="3.894" style="fill:url(#e);stroke:none;stroke-width:.75;stroke-linecap:butt"/></g><g transform="translate(9.776)"><title>Sheet.14801</title><ellipse cx="2.583" cy="81.376" rx="2.583" ry="2.53" style="fill:url(#f);stroke:none;stroke-width:.75;stroke-linecap:butt"/></g><g transform="translate(15.505 -6.121)"><title>Sheet.14802</title><ellipse cx="2.743" cy="81.218" rx="2.743" ry="2.687" style="fill:#fff;stroke:none;stroke-width:.75;stroke-linecap:butt"/></g><g transform="translate(0 -.417)"><title>Sheet.14803</title><g transform="translate(0 -.447)"><title>Sheet.14804</title><path d="M0 81.67a13.25 12.98-180 0 0 .91 1.31 12.1 11.854-180 0 0 .8.93 25.88 25.352 0 0 1 1.58-4.94 3.946 3.866 0 0 1-2.07-1.03A27.638 27.074-180 0 0 0 81.67" style="fill:#f2f2f2;fill-opacity:.55;stroke:none;stroke-width:.75;stroke-linecap:butt"/></g><g transform="translate(.04 -11.647)"><title>Sheet.14805</title><path d="M2.6 82.66a17.367 17.013 0 0 1-1-4.2A12.353 12.1-180 0 0 0 80.54a19.3 18.907-180 0 0 .83 3.37 3.972 3.89 0 0 1 1.77-1.25" style="fill:#f2f2f2;fill-opacity:.55;stroke:none;stroke-width:.75;stroke-linecap:butt"/></g><g transform="translate(4.712 -1.79)"><title>Sheet.14806</title><path d="M2.17 79.12A3.95 3.869 0 0 1 0 80.29a16.84 16.497-180 0 0 2.11 1.84 17.912 17.546-180 0 0 2.98 1.78 2.346 2.299 0 0 1-.04-.33 2.567 2.515 0 0 1 .78-1.81 17.53 17.173 0 0 1-3.66-2.65" style="fill:#f2f2f2;fill-opacity:.55;stroke:none;stroke-width:.75;stroke-linecap:butt"/></g><g transform="translate(14.198)"><title>Sheet.14807</title><path d="M.74 81.63v.16A2.583 2.53 0 0 1 0 83.56a20.195 19.783-180 0 0 4.96.35 12.246 11.996-180 0 0 1.68-1.92 17.515 17.158 0 0 1-1.89.1 17.175 16.824 0 0 1-4.01-.46" style="fill:#f2f2f2;fill-opacity:.55;stroke:none;stroke-width:.75;stroke-linecap:butt"/></g><g transform="translate(5.395 -8.873)"><title>Sheet.14808</title><path d="M11.03 82.49a38.702 37.913 0 0 1-4.74-4.04 19.792 19.388 0 0 1 8.63-2.07 12.217 11.968-180 0 0-2.16-2.06 21.04 20.61-180 0 0-6.84 1.58c-.47.2-.89.49-1.34.72l-.04-.04a24.835 24.328 0 0 1-2.89-4.17 12.369 12.116-180 0 0-1.57.6 26.085 25.553-180 0 0 3.01 4.43A17.767 17.404-180 0 0 0 79.9a3.975 3.894 0 0 1 1.96 1.57 17.046 16.698 0 0 1 2.83-2.16 40.13 39.31-180 0 0 5.36 4.6 2.696 2.641 0 0 1 .88-1.42" style="fill:#f2f2f2;fill-opacity:.55;stroke:none;stroke-width:.75;stroke-linecap:butt"/></g><g transform="translate(19.965 -4.989)"><title>Sheet.14809</title><path d="m2.43 82.08-.05-.03-.43-.23-.08-.04-.39-.21-.09-.05-.46-.26A2.58 2.527 0 0 1 0 82.58l.54.31.13.07.5.27.05.03c.41.21.83.43 1.26.65a12.315 12.064-180 0 0 .41-1.59z" style="fill:#f2f2f2;fill-opacity:.55;stroke:none;stroke-width:.75;stroke-linecap:butt"/></g></g><g transform="translate(.006 -5.751)"><title>Sheet.14810</title><ellipse cx="3.975" cy="80.012" rx="3.975" ry="3.894" style="fill:#fff;stroke:none;stroke-width:.75;stroke-linecap:butt"/></g><g transform="translate(9.776)"><title>Sheet.14811</title><ellipse cx="2.583" cy="81.376" rx="2.583" ry="2.53" style="fill:#fff;stroke:none;stroke-width:.75;stroke-linecap:butt"/></g></g></g></g></svg>
